assets/images/dotsStar.svg

<svg width="66" height="16" viewBox="0 0 66 16" fill="none" xmlns="http://www.w3.org/2000/svg">
<path d="M17.7114 5.34726L14.9127 1.08616L11.1114 4.2611L11.4038 0H6.30761L6.55824 4.2611L2.79874 1.08616L0 5.34726L5.05444 7.97911L0 10.611L2.79874 14.9138L6.55824 11.6971L6.30761 16H11.4038L11.1532 11.6971L14.8709 14.9138L17.7114 10.611L12.6152 7.97911L17.7114 5.34726Z" fill="#0029FF"/>
<path d="M41.6978 5.34726L38.8991 1.08616L35.0978 4.2611L35.3902 0H30.294L30.5446 4.2611L26.7851 1.08616L23.9864 5.34726L29.0408 7.97911L23.9864 10.611L26.7851 14.9138L30.5446 11.6971L30.294 16H35.3902L35.1396 11.6971L38.8573 14.9138L41.6978 10.611L36.6016 7.97911L41.6978 5.34726Z" fill="#0029FF"/>
<path d="M65.6842 5.34726L62.8855 1.08616L59.0842 4.2611L59.3766 0H54.2804L54.531 4.2611L50.7715 1.08616L47.9728 5.34726L53.0272 7.97911L47.9728 10.611L50.7715 14.9138L54.531 11.6971L54.2804 16H59.3766L59.126 11.6971L62.8437 14.9138L65.6842 10.611L60.588 7.97911L65.6842 5.34726Z" fill="#0029FF"/>
</svg>

<svg width="66" height="16" fill="none" xmlns="http://www.w3.org/2000/svg"><path d="M17.711 5.347l-2.798-4.26L11.11 4.26 11.404 0H6.308l.25 4.261-3.76-3.175L0 5.347 5.054 7.98 0 10.611l2.799 4.303 3.76-3.217L6.307 16h5.096l-.25-4.303 3.717 3.217 2.84-4.303-5.096-2.632 5.096-2.632zm23.987 0l-2.799-4.26-3.801 3.174L35.39 0h-5.096l.25 4.261-3.759-3.175-2.799 4.261 5.055 2.632-5.055 2.632 2.8 4.303 3.759-3.217L30.294 16h5.096l-.25-4.303 3.717 3.217 2.84-4.303-5.095-2.632 5.096-2.632zm23.986 0l-2.798-4.26-3.802 3.174L59.377 0H54.28l.251 4.261-3.76-3.175-2.798 4.261 5.054 2.632-5.054 2.632 2.799 4.303 3.759-3.217-.25 4.303h5.096l-.251-4.303 3.718 3.217 2.84-4.303-5.096-2.632 5.096-2.632z" fill="#0029FF"/></svg>
